X:7
T:No.61 Shoe The Donkey
C:waltz
M:3/4
L:1/8
K:G
d^c||d2B2d^c|d2B2d^c|d2e2d2|
c4cB|c2A2cB|c2A2cB|
c2e2d2|[1B4d^c:|[2G4BA||
G2B2d2|g3gag|f2e2d2|A3BAG|
F2G2A2|f4fe|d2c2A2|B3cBA|
G2B2d2|g3gag|f2e2d2|A3BAG|
F2G2A2|f4fe|d2e2f2|g6||
